dist/images/linkedin.svg

<?xml version="1.0" encoding="UTF-8" standalone="no"?>
<svg id="svg2" xmlns:rdf="http://www.w3.org/1999/02/22-rdf-syntax-ns#" xmlns="http://www.w3.org/2000/svg" height="24" width="24" version="1.1" xmlns:cc="http://creativecommons.org/ns#" xmlns:dc="http://purl.org/dc/elements/1.1/" viewBox="0 0 24 24">
 <metadata id="metadata10">
  <rdf:RDF>
   <cc:Work rdf:about="">
    <dc:format>image/svg+xml</dc:format>
    <dc:type rdf:resource="http://purl.org/dc/dcmitype/StillImage"/>
   </cc:Work>
  </rdf:RDF>
 </metadata>
 <path id="path4" fill="#0077b5" d="m21 21h-4v-6.75c0-1.06-1.19-1.94-2.25-1.94s-1.75 0.88-1.75 1.94v6.75h-4v-12h4v2c0.66-1.07 2.36-1.76 3.5-1.76 2.5 0 4.5 2.04 4.5 4.51v7.25m-14 0h-4v-12h4v12m-2-18a2 2 0 0 1 2 2 2 2 0 0 1 -2 2 2 2 0 0 1 -2 -2 2 2 0 0 1 2 -2z"/>
</svg>

<?xml version="1.0" encoding="UTF-8"?><!DOCTYPE svg PUBLIC "-//W3C//DTD SVG 1.1//EN" "http://www.w3.org/Graphics/SVG/1.1/DTD/svg11.dtd"><svg xmlns="http://www.w3.org/2000/svg" xmlns:xlink="http://www.w3.org/1999/xlink" version="1.1" width="24" height="24" viewBox="0 0 24 24"><path d="M21,21H17V14.25C17,13.19 15.81,12.31 14.75,12.31C13.69,12.31 13,13.19 13,14.25V21H9V9H13V11C13.66,9.93 15.36,9.24 16.5,9.24C19,9.24 21,11.28 21,13.75V21M7,21H3V9H7V21M5,3A2,2 0 0,1 7,5A2,2 0 0,1 5,7A2,2 0 0,1 3,5A2,2 0 0,1 5,3Z" /></svg>
